Catalina-light/actions/22/colorneg.svg

<svg xmlns="http://www.w3.org/2000/svg" viewBox="0 0 22 22">
  <defs id="defs3051">
    <style type="text/css" id="current-color-scheme">
      .ColorScheme-Highlight {
        color:#3daee9;
      }
      </style>
  </defs>
    <path
       style="fill:currentColor;fill-opacity:1;stroke:none"
	 class="ColorScheme-Highlight"
        d="M 3 3 L 3 19 L 19 19 L 19 3 L 3 3 z M 18 4 L 18 18 L 4 18 L 7.46875 14.53125 C 6.563928 13.626428 6 12.380712 6 11 C 6 8.2385763 8.2385763 6 11 6 C 12.380712 6 13.626428 6.563928 14.53125 7.46875 L 18 4 z M 14.53125 7.46875 L 7.46875 14.53125 C 8.373572 15.436072 9.619288 16 11 16 C 13.761424 16 16 13.761424 16 11 C 16 9.619288 15.436072 8.373572 14.53125 7.46875 z "
     />
</svg>

<svg viewBox="0 0 22 22" xmlns="http://www.w3.org/2000/svg">
<defs>
<style id="current-color-scheme" type="text/css">.ColorScheme-Highlight {
        color:#3daee9;
      }</style>
</defs>
<path class="ColorScheme-Highlight" d="m3 3v16h16v-16h-16zm15 1v14h-14l3.4688-3.4688c-0.90482-0.90482-1.4688-2.1505-1.4688-3.5312 0-2.7614 2.2386-5 5-5 1.3807 0 2.6264 0.56393 3.5312 1.4688l3.4688-3.4688zm-3.4688 3.4688-7.0625 7.0625c0.90482 0.90482 2.1505 1.4688 3.5312 1.4688 2.7614 0 5-2.2386 5-5 0-1.3807-0.56393-2.6264-1.4688-3.5312z" fill="#363636"/>
</svg>
